images/50866485.svg

<?xml version="1.0" encoding="UTF-8"?>
<svg xmlns="http://www.w3.org/2000/svg" xmlns:xlink="http://www.w3.org/1999/xlink" width="300pt" height="300pt" viewBox="0 0 300 300" version="1.1">
<defs>
<g>
<symbol overflow="visible" id="glyph0-0">
<path style="stroke:none;" d="M 0.453125 1.59375 L 0.453125 -6.34375 L 4.953125 -6.34375 L 4.953125 1.59375 Z M 0.953125 1.09375 L 4.453125 1.09375 L 4.453125 -5.84375 L 0.953125 -5.84375 Z M 0.953125 1.09375 "/>
</symbol>
<symbol overflow="visible" id="glyph0-1">
<path style="stroke:none;" d="M 3.546875 -5.953125 C 2.898438 -5.953125 2.382812 -5.710938 2 -5.234375 C 1.625 -4.753906 1.4375 -4.101562 1.4375 -3.28125 C 1.4375 -2.445312 1.625 -1.789062 2 -1.3125 C 2.382812 -0.832031 2.898438 -0.59375 3.546875 -0.59375 C 4.191406 -0.59375 4.703125 -0.832031 5.078125 -1.3125 C 5.453125 -1.789062 5.640625 -2.445312 5.640625 -3.28125 C 5.640625 -4.101562 5.453125 -4.753906 5.078125 -5.234375 C 4.703125 -5.710938 4.191406 -5.953125 3.546875 -5.953125 Z M 3.546875 -6.6875 C 4.460938 -6.6875 5.195312 -6.375 5.75 -5.75 C 6.300781 -5.132812 6.578125 -4.3125 6.578125 -3.28125 C 6.578125 -2.238281 6.300781 -1.410156 5.75 -0.796875 C 5.195312 -0.179688 4.460938 0.125 3.546875 0.125 C 2.617188 0.125 1.878906 -0.179688 1.328125 -0.796875 C 0.773438 -1.410156 0.5 -2.238281 0.5 -3.28125 C 0.5 -4.3125 0.773438 -5.132812 1.328125 -5.75 C 1.878906 -6.375 2.617188 -6.6875 3.546875 -6.6875 Z M 3.546875 -6.6875 "/>
</symbol>
<symbol overflow="visible" id="glyph0-2">
<path style="stroke:none;" d="M 0.890625 -6.5625 L 2.078125 -6.5625 L 4.984375 -1.078125 L 4.984375 -6.5625 L 5.84375 -6.5625 L 5.84375 0 L 4.65625 0 L 1.75 -5.484375 L 1.75 0 L 0.890625 0 Z M 0.890625 -6.5625 "/>
</symbol>
<symbol overflow="visible" id="glyph0-3">
<path style="stroke:none;" d="M 0.890625 -6.5625 L 1.765625 -6.5625 L 1.765625 -3.875 L 5 -3.875 L 5 -6.5625 L 5.890625 -6.5625 L 5.890625 0 L 5 0 L 5 -3.125 L 1.765625 -3.125 L 1.765625 0 L 0.890625 0 Z M 0.890625 -6.5625 "/>
</symbol>
</g>
</defs>
<g id="surface23469">
<rect x="0" y="0" width="300" height="300" style="fill:rgb(100%,100%,100%);fill-opacity:1;stroke:none;"/>
<path style="fill:none;stroke-width:1.2;stroke-linecap:butt;stroke-linejoin:miter;stroke:rgb(100%,0%,0%);stroke-opacity:1;stroke-miterlimit:10;" d="M 36.082031 146.472656 L 45.796875 142.941406 "/>
<path style="fill:none;stroke-width:1.2;stroke-linecap:butt;stroke-linejoin:miter;stroke:rgb(0%,0%,0%);stroke-opacity:1;stroke-miterlimit:10;" d="M 45.796875 142.941406 L 55.511719 139.410156 "/>
<path style="fill:none;stroke-width:1.2;stroke-linecap:butt;stroke-linejoin:miter;stroke:rgb(100%,0%,0%);stroke-opacity:1;stroke-miterlimit:10;" d="M 34.417969 141.902344 L 44.132812 138.367188 "/>
<path style="fill:none;stroke-width:1.2;stroke-linecap:butt;stroke-linejoin:miter;stroke:rgb(0%,0%,0%);stroke-opacity:1;stroke-miterlimit:10;" d="M 44.132812 138.367188 L 53.847656 134.835938 "/>
<path style=" stroke:none;fill-rule:nonzero;fill:rgb(100%,100%,100%);fill-opacity:1;" d="M 27.25 138.6875 L 35.25 138.6875 L 35.25 149.6875 L 27.25 149.6875 Z M 27.25 138.6875 "/>
<g style="fill:rgb(100%,0%,0%);fill-opacity:1;">
  <use xlink:href="#glyph0-1" x="27.25" y="147.350586"/>
</g>
<path style="fill:none;stroke-width:1.2;stroke-linecap:butt;stroke-linejoin:miter;stroke:rgb(0%,0%,0%);stroke-opacity:1;stroke-miterlimit:10;" d="M 54.679688 137.121094 L 56.476562 126.945312 "/>
<path style="fill:none;stroke-width:1.2;stroke-linecap:butt;stroke-linejoin:miter;stroke:rgb(0%,0%,100%);stroke-opacity:1;stroke-miterlimit:10;" d="M 56.476562 126.945312 L 58.277344 116.765625 "/>
<path style="fill:none;stroke-width:1.2;stroke-linecap:butt;stroke-linejoin:miter;stroke:rgb(0%,0%,0%);stroke-opacity:1;stroke-miterlimit:10;" d="M 54.679688 137.121094 L 70.511719 150.417969 "/>
<path style="fill:none;stroke-width:1.2;stroke-linecap:butt;stroke-linejoin:miter;stroke:rgb(0%,0%,100%);stroke-opacity:1;stroke-miterlimit:10;" d="M 58.277344 116.765625 L 50.359375 110.117188 "/>
<path style="fill:none;stroke-width:1.2;stroke-linecap:butt;stroke-linejoin:miter;stroke:rgb(0%,0%,0%);stroke-opacity:1;stroke-miterlimit:10;" d="M 50.359375 110.117188 L 42.445312 103.46875 "/>
<path style=" stroke:none;fill-rule:nonzero;fill:rgb(100%,100%,100%);fill-opacity:1;" d="M 51.277344 111.265625 L 65.277344 111.265625 L 65.277344 122.265625 L 51.277344 122.265625 Z M 51.277344 111.265625 "/>
<g style="fill:rgb(0%,0%,100%);fill-opacity:1;">
  <use xlink:href="#glyph0-2" x="51.277344" y="119.928711"/>
  <use xlink:href="#glyph0-3" x="58.254883" y="119.928711"/>
</g>
<path style="fill:none;stroke-width:1.2;stroke-linecap:butt;stroke-linejoin:miter;stroke:rgb(0%,0%,0%);stroke-opacity:1;stroke-miterlimit:10;" d="M 70.511719 150.417969 L 89.941406 143.351562 "/>
<path style="fill:none;stroke-width:1.2;stroke-linecap:butt;stroke-linejoin:miter;stroke:rgb(0%,0%,0%);stroke-opacity:1;stroke-miterlimit:10;" d="M 74.117188 154.28125 L 89.660156 148.628906 "/>
<path style="fill:none;stroke-width:1.2;stroke-linecap:butt;stroke-linejoin:miter;stroke:rgb(0%,0%,0%);stroke-opacity:1;stroke-miterlimit:10;" d="M 66.914062 170.773438 L 70.511719 150.417969 "/>
<path style="fill:none;stroke-width:1.2;stroke-linecap:butt;stroke-linejoin:miter;stroke:rgb(0%,0%,0%);stroke-opacity:1;stroke-miterlimit:10;" d="M 89.941406 143.351562 L 105.773438 156.648438 "/>
<path style="fill:none;stroke-width:1.2;stroke-linecap:butt;stroke-linejoin:miter;stroke:rgb(0%,0%,0%);stroke-opacity:1;stroke-miterlimit:10;" d="M 105.773438 156.648438 L 115.484375 153.113281 "/>
<path style="fill:none;stroke-width:1.2;stroke-linecap:butt;stroke-linejoin:miter;stroke:rgb(0%,0%,100%);stroke-opacity:1;stroke-miterlimit:10;" d="M 115.484375 153.113281 L 125.199219 149.582031 "/>
<path style="fill:none;stroke-width:1.2;stroke-linecap:butt;stroke-linejoin:miter;stroke:rgb(0%,0%,0%);stroke-opacity:1;stroke-miterlimit:10;" d="M 105.773438 156.648438 L 102.175781 177.003906 "/>
<path style="fill:none;stroke-width:1.2;stroke-linecap:butt;stroke-linejoin:miter;stroke:rgb(0%,0%,0%);stroke-opacity:1;stroke-miterlimit:10;" d="M 100.621094 157.835938 L 97.746094 174.121094 "/>
<path style="fill:none;stroke-width:1.2;stroke-linecap:butt;stroke-linejoin:miter;stroke:rgb(0%,0%,100%);stroke-opacity:1;stroke-miterlimit:10;" d="M 125.199219 149.582031 L 133.117188 156.230469 "/>
<path style="fill:none;stroke-width:1.2;stroke-linecap:butt;stroke-linejoin:miter;stroke:rgb(0%,0%,0%);stroke-opacity:1;stroke-miterlimit:10;" d="M 133.117188 156.230469 L 141.03125 162.878906 "/>
<path style=" stroke:none;fill-rule:nonzero;fill:rgb(100%,100%,100%);fill-opacity:1;" d="M 118.199219 144.082031 L 132.199219 144.082031 L 132.199219 155.082031 L 118.199219 155.082031 Z M 118.199219 144.082031 "/>
<g style="fill:rgb(0%,0%,100%);fill-opacity:1;">
  <use xlink:href="#glyph0-2" x="118.199219" y="152.745117"/>
  <use xlink:href="#glyph0-3" x="125.176758" y="152.745117"/>
</g>
<path style="fill:none;stroke-width:1.2;stroke-linecap:butt;stroke-linejoin:miter;stroke:rgb(0%,0%,0%);stroke-opacity:1;stroke-miterlimit:10;" d="M 141.03125 162.878906 L 139.234375 173.054688 "/>
<path style="fill:none;stroke-width:1.2;stroke-linecap:butt;stroke-linejoin:miter;stroke:rgb(0%,0%,100%);stroke-opacity:1;stroke-miterlimit:10;" d="M 139.234375 173.054688 L 137.4375 183.234375 "/>
<path style="fill:none;stroke-width:1.2;stroke-linecap:butt;stroke-linejoin:miter;stroke:rgb(0%,0%,0%);stroke-opacity:1;stroke-miterlimit:10;" d="M 145.464844 165.757812 L 144.023438 173.902344 "/>
<path style="fill:none;stroke-width:1.2;stroke-linecap:butt;stroke-linejoin:miter;stroke:rgb(0%,0%,100%);stroke-opacity:1;stroke-miterlimit:10;" d="M 144.023438 173.902344 L 142.585938 182.046875 "/>
<path style="fill:none;stroke-width:1.2;stroke-linecap:butt;stroke-linejoin:miter;stroke:rgb(0%,0%,0%);stroke-opacity:1;stroke-miterlimit:10;" d="M 160.460938 155.8125 L 141.03125 162.878906 "/>
<path style="fill:none;stroke-width:1.2;stroke-linecap:butt;stroke-linejoin:miter;stroke:rgb(0%,0%,100%);stroke-opacity:1;stroke-miterlimit:10;" d="M 137.4375 183.234375 L 145.351562 189.882812 "/>
<path style="fill:none;stroke-width:1.2;stroke-linecap:butt;stroke-linejoin:miter;stroke:rgb(0%,0%,0%);stroke-opacity:1;stroke-miterlimit:10;" d="M 145.351562 189.882812 L 153.265625 196.53125 "/>
<path style=" stroke:none;fill-rule:nonzero;fill:rgb(100%,100%,100%);fill-opacity:1;" d="M 134.4375 177.734375 L 141.4375 177.734375 L 141.4375 188.734375 L 134.4375 188.734375 Z M 134.4375 177.734375 "/>
<g style="fill:rgb(0%,0%,100%);fill-opacity:1;">
  <use xlink:href="#glyph0-2" x="134.4375" y="186.397461"/>
</g>
<path style="fill:none;stroke-width:1.2;stroke-linecap:butt;stroke-linejoin:miter;stroke:rgb(0%,0%,0%);stroke-opacity:1;stroke-miterlimit:10;" d="M 153.265625 196.53125 L 162.980469 192.996094 "/>
<path style="fill:none;stroke-width:1.2;stroke-linecap:butt;stroke-linejoin:miter;stroke:rgb(0%,0%,100%);stroke-opacity:1;stroke-miterlimit:10;" d="M 162.980469 192.996094 L 172.695312 189.464844 "/>
<path style="fill:none;stroke-width:1.2;stroke-linecap:butt;stroke-linejoin:miter;stroke:rgb(0%,0%,0%);stroke-opacity:1;stroke-miterlimit:10;" d="M 153.546875 191.25 L 161.320312 188.425781 "/>
<path style="fill:none;stroke-width:1.2;stroke-linecap:butt;stroke-linejoin:miter;stroke:rgb(0%,0%,100%);stroke-opacity:1;stroke-miterlimit:10;" d="M 161.320312 188.425781 L 169.089844 185.601562 "/>
<path style="fill:none;stroke-width:1.2;stroke-linecap:butt;stroke-linejoin:miter;stroke:rgb(0%,0%,100%);stroke-opacity:1;stroke-miterlimit:10;" d="M 172.695312 189.464844 L 174.496094 179.285156 "/>
<path style="fill:none;stroke-width:1.2;stroke-linecap:butt;stroke-linejoin:miter;stroke:rgb(0%,0%,0%);stroke-opacity:1;stroke-miterlimit:10;" d="M 174.496094 179.285156 L 176.292969 169.109375 "/>
<path style=" stroke:none;fill-rule:nonzero;fill:rgb(100%,100%,100%);fill-opacity:1;" d="M 169.695312 183.964844 L 176.695312 183.964844 L 176.695312 194.964844 L 169.695312 194.964844 Z M 169.695312 183.964844 "/>
<g style="fill:rgb(0%,0%,100%);fill-opacity:1;">
  <use xlink:href="#glyph0-2" x="169.695312" y="192.62793"/>
</g>
<path style="fill:none;stroke-width:1.2;stroke-linecap:butt;stroke-linejoin:miter;stroke:rgb(0%,0%,0%);stroke-opacity:1;stroke-miterlimit:10;" d="M 176.292969 169.109375 L 185.0625 163.632812 "/>
<path style="fill:none;stroke-width:1.2;stroke-linecap:butt;stroke-linejoin:miter;stroke:rgb(0%,0%,100%);stroke-opacity:1;stroke-miterlimit:10;" d="M 185.0625 163.632812 L 193.828125 158.160156 "/>
<path style="fill:none;stroke-width:1.2;stroke-linecap:butt;stroke-linejoin:miter;stroke:rgb(0%,0%,0%);stroke-opacity:1;stroke-miterlimit:10;" d="M 160.460938 155.8125 L 176.292969 169.109375 "/>
<path style="fill:none;stroke-width:1.2;stroke-linecap:butt;stroke-linejoin:miter;stroke:rgb(0%,0%,0%);stroke-opacity:1;stroke-miterlimit:10;" d="M 158.917969 160.867188 L 171.582031 171.503906 "/>
<path style="fill:none;stroke-width:1.2;stroke-linecap:butt;stroke-linejoin:miter;stroke:rgb(0%,0%,100%);stroke-opacity:1;stroke-miterlimit:10;" d="M 193.828125 158.160156 L 188.835938 138.097656 "/>
<path style="fill:none;stroke-width:1.2;stroke-linecap:butt;stroke-linejoin:miter;stroke:rgb(0%,0%,100%);stroke-opacity:1;stroke-miterlimit:10;" d="M 193.828125 158.160156 L 203.410156 162.035156 "/>
<path style="fill:none;stroke-width:1.2;stroke-linecap:butt;stroke-linejoin:miter;stroke:rgb(0%,0%,0%);stroke-opacity:1;stroke-miterlimit:10;" d="M 203.410156 162.035156 L 212.996094 165.910156 "/>
<path style=" stroke:none;fill-rule:nonzero;fill:rgb(100%,100%,100%);fill-opacity:1;" d="M 190.828125 152.660156 L 197.828125 152.660156 L 197.828125 163.660156 L 190.828125 163.660156 Z M 190.828125 152.660156 "/>
<g style="fill:rgb(0%,0%,100%);fill-opacity:1;">
  <use xlink:href="#glyph0-2" x="190.828125" y="161.323242"/>
</g>
<path style="fill:none;stroke-width:1.2;stroke-linecap:butt;stroke-linejoin:miter;stroke:rgb(0%,0%,100%);stroke-opacity:1;stroke-miterlimit:10;" d="M 188.835938 138.097656 L 178.523438 137.375 "/>
<path style="fill:none;stroke-width:1.2;stroke-linecap:butt;stroke-linejoin:miter;stroke:rgb(0%,0%,0%);stroke-opacity:1;stroke-miterlimit:10;" d="M 178.523438 137.375 L 168.210938 136.648438 "/>
<path style="fill:none;stroke-width:1.2;stroke-linecap:butt;stroke-linejoin:miter;stroke:rgb(0%,0%,100%);stroke-opacity:1;stroke-miterlimit:10;" d="M 186.433594 142.804688 L 178.183594 142.226562 "/>
<path style="fill:none;stroke-width:1.2;stroke-linecap:butt;stroke-linejoin:miter;stroke:rgb(0%,0%,0%);stroke-opacity:1;stroke-miterlimit:10;" d="M 178.183594 142.226562 L 169.933594 141.644531 "/>
<path style=" stroke:none;fill-rule:nonzero;fill:rgb(100%,100%,100%);fill-opacity:1;" d="M 185.835938 132.597656 L 192.835938 132.597656 L 192.835938 143.597656 L 185.835938 143.597656 Z M 185.835938 132.597656 "/>
<g style="fill:rgb(0%,0%,100%);fill-opacity:1;">
  <use xlink:href="#glyph0-2" x="185.835938" y="141.260742"/>
</g>
<path style="fill:none;stroke-width:1.2;stroke-linecap:butt;stroke-linejoin:miter;stroke:rgb(0%,0%,0%);stroke-opacity:1;stroke-miterlimit:10;" d="M 168.210938 136.648438 L 160.460938 155.8125 "/>
<path style="fill:none;stroke-width:1.2;stroke-linecap:butt;stroke-linejoin:miter;stroke:rgb(0%,0%,0%);stroke-opacity:1;stroke-miterlimit:10;" d="M 212.996094 165.910156 L 229.289062 153.1875 "/>
<path style="fill:none;stroke-width:1.2;stroke-linecap:butt;stroke-linejoin:miter;stroke:rgb(0%,0%,0%);stroke-opacity:1;stroke-miterlimit:10;" d="M 229.289062 153.1875 L 248.453125 160.9375 "/>
<path style="fill:none;stroke-width:1.2;stroke-linecap:butt;stroke-linejoin:miter;stroke:rgb(0%,0%,0%);stroke-opacity:1;stroke-miterlimit:10;" d="M 233.03125 149.453125 L 248.363281 155.65625 "/>
<path style="fill:none;stroke-width:1.2;stroke-linecap:butt;stroke-linejoin:miter;stroke:rgb(0%,0%,0%);stroke-opacity:1;stroke-miterlimit:10;" d="M 226.417969 132.714844 L 229.289062 153.1875 "/>
<path style="fill:none;stroke-width:1.2;stroke-linecap:butt;stroke-linejoin:miter;stroke:rgb(0%,0%,0%);stroke-opacity:1;stroke-miterlimit:10;" d="M 248.453125 160.9375 L 264.75 148.21875 "/>
<path style="fill:none;stroke-width:1.2;stroke-linecap:butt;stroke-linejoin:miter;stroke:rgb(0%,0%,0%);stroke-opacity:1;stroke-miterlimit:10;" d="M 264.75 148.21875 L 261.878906 127.742188 "/>
<path style="fill:none;stroke-width:1.2;stroke-linecap:butt;stroke-linejoin:miter;stroke:rgb(0%,0%,0%);stroke-opacity:1;stroke-miterlimit:10;" d="M 259.644531 146.84375 L 257.351562 130.464844 "/>
<path style="fill:none;stroke-width:1.2;stroke-linecap:butt;stroke-linejoin:miter;stroke:rgb(0%,0%,0%);stroke-opacity:1;stroke-miterlimit:10;" d="M 261.878906 127.742188 L 242.714844 119.992188 "/>
<path style="fill:none;stroke-width:1.2;stroke-linecap:butt;stroke-linejoin:miter;stroke:rgb(0%,0%,0%);stroke-opacity:1;stroke-miterlimit:10;" d="M 242.714844 119.992188 L 226.417969 132.714844 "/>
<path style="fill:none;stroke-width:1.2;stroke-linecap:butt;stroke-linejoin:miter;stroke:rgb(0%,0%,0%);stroke-opacity:1;stroke-miterlimit:10;" d="M 244.078125 125.097656 L 231.042969 135.277344 "/>
<path style="fill:none;stroke-width:1.2;stroke-linecap:butt;stroke-linejoin:miter;stroke:rgb(0%,0%,0%);stroke-opacity:1;stroke-miterlimit:10;" d="M 102.175781 177.003906 L 82.746094 184.070312 "/>
<path style="fill:none;stroke-width:1.2;stroke-linecap:butt;stroke-linejoin:miter;stroke:rgb(0%,0%,0%);stroke-opacity:1;stroke-miterlimit:10;" d="M 102.175781 177.003906 L 118.007812 190.300781 "/>
<path style="fill:none;stroke-width:1.2;stroke-linecap:butt;stroke-linejoin:miter;stroke:rgb(0%,0%,0%);stroke-opacity:1;stroke-miterlimit:10;" d="M 82.746094 184.070312 L 66.914062 170.773438 "/>
<path style="fill:none;stroke-width:1.2;stroke-linecap:butt;stroke-linejoin:miter;stroke:rgb(0%,0%,0%);stroke-opacity:1;stroke-miterlimit:10;" d="M 84.289062 179.015625 L 71.625 168.378906 "/>
</g>
</svg>

<svg xmlns="http://www.w3.org/2000/svg" xmlns:xlink="http://www.w3.org/1999/xlink" width="300pt" height="300pt" viewBox="0 0 300 300"><defs><symbol overflow="visible"><path d="M.453 1.594v-7.938h4.5v7.938zm.5-.5h3.5v-6.938h-3.5zm0 0"/></symbol><symbol overflow="visible" id="a"><path d="M3.547-5.953c-.65 0-1.164.242-1.547.72-.375.48-.563 1.13-.563 1.952 0 .835.188 1.49.563 1.967.383.48.898.72 1.547.72.644 0 1.156-.24 1.53-.72.376-.476.564-1.132.564-1.968 0-.822-.187-1.474-.562-1.954-.375-.477-.887-.72-1.53-.72zm0-.734c.914 0 1.648.312 2.203.937.55.617.828 1.438.828 2.47 0 1.042-.277 1.87-.828 2.483-.555.617-1.29.922-2.203.922-.93 0-1.668-.305-2.22-.922C.774-1.41.5-2.237.5-3.28c0-1.033.273-1.853.828-2.47.55-.625 1.29-.938 2.22-.938zm0 0"/></symbol><symbol overflow="visible" id="b"><path d="M.89-6.563H2.08l2.906 5.485v-5.484h.86V0H4.656L1.75-5.484V0H.89zm0 0"/></symbol><symbol overflow="visible" id="c"><path d="M.89-6.563h.876v2.688H5v-2.688h.89V0H5v-3.125H1.766V0H.89zm0 0"/></symbol></defs><g><path fill="#fff" d="M0 0h300v300H0z"/><path d="M36.082 146.473l9.715-3.532" stroke-width="1.2" stroke="#f00" stroke-miterlimit="10" fill="none"/><path d="M45.797 142.94l9.715-3.53" stroke-width="1.2" stroke="#000" stroke-miterlimit="10" fill="none"/><path d="M34.418 141.902l9.715-3.535" stroke-width="1.2" stroke="#f00" stroke-miterlimit="10" fill="none"/><path d="M44.133 138.367l9.715-3.53" stroke-width="1.2" stroke="#000" stroke-miterlimit="10" fill="none"/><path d="M27.25 138.688h8v11h-8zm0 0" fill="#fff"/><use xlink:href="#a" x="27.25" y="147.351" fill="#f00"/><path d="M54.68 137.12l1.797-10.175" stroke-width="1.2" stroke="#000" stroke-miterlimit="10" fill="none"/><path d="M56.477 126.945l1.8-10.18" stroke-width="1.2" stroke="#00f" stroke-miterlimit="10" fill="none"/><path d="M54.68 137.12l15.832 13.298" stroke-width="1.2" stroke="#000" stroke-miterlimit="10" fill="none"/><path d="M58.277 116.766l-7.918-6.65" stroke-width="1.2" stroke="#00f" stroke-miterlimit="10" fill="none"/><path d="M50.36 110.117l-7.915-6.648" stroke-width="1.2" stroke="#000" stroke-miterlimit="10" fill="none"/><path d="M51.277 111.266h14v11h-14zm0 0" fill="#fff"/><g fill="#00f"><use xlink:href="#b" x="51.277" y="119.929"/><use xlink:href="#c" x="58.255" y="119.929"/></g><path d="M70.512 150.418l19.43-7.066M74.117 154.28l15.543-5.65M66.914 170.773l3.598-20.355M89.94 143.352l15.833 13.296M105.773 156.648l9.71-3.535" stroke-width="1.2" stroke="#000" stroke-miterlimit="10" fill="none"/><path d="M115.484 153.113l9.715-3.53" stroke-width="1.2" stroke="#00f" stroke-miterlimit="10" fill="none"/><path d="M105.773 156.648l-3.597 20.356M100.62 157.836l-2.874 16.285" stroke-width="1.2" stroke="#000" stroke-miterlimit="10" fill="none"/><path d="M125.2 149.582l7.917 6.648" stroke-width="1.2" stroke="#00f" stroke-miterlimit="10" fill="none"/><path d="M133.117 156.23l7.914 6.65" stroke-width="1.2" stroke="#000" stroke-miterlimit="10" fill="none"/><path d="M118.2 144.082h14v11h-14zm0 0" fill="#fff"/><g fill="#00f"><use xlink:href="#b" x="118.199" y="152.745"/><use xlink:href="#c" x="125.177" y="152.745"/></g><path d="M141.03 162.88l-1.796 10.175" stroke-width="1.2" stroke="#000" stroke-miterlimit="10" fill="none"/><path d="M139.234 173.055l-1.797 10.18" stroke-width="1.2" stroke="#00f" stroke-miterlimit="10" fill="none"/><path d="M145.465 165.758l-1.442 8.144" stroke-width="1.2" stroke="#000" stroke-miterlimit="10" fill="none"/><path d="M144.023 173.902l-1.437 8.145" stroke-width="1.2" stroke="#00f" stroke-miterlimit="10" fill="none"/><path d="M160.46 155.813l-19.43 7.066" stroke-width="1.2" stroke="#000" stroke-miterlimit="10" fill="none"/><path d="M137.438 183.234l7.914 6.65" stroke-width="1.2" stroke="#00f" stroke-miterlimit="10" fill="none"/><path d="M145.352 189.883l7.914 6.648" stroke-width="1.2" stroke="#000" stroke-miterlimit="10" fill="none"/><path d="M134.438 177.734h7v11h-7zm0 0" fill="#fff"/><use xlink:href="#b" x="134.438" y="186.397" fill="#00f"/><path d="M153.266 196.53l9.714-3.534" stroke-width="1.2" stroke="#000" stroke-miterlimit="10" fill="none"/><path d="M162.98 192.996l9.715-3.53" stroke-width="1.2" stroke="#00f" stroke-miterlimit="10" fill="none"/><path d="M153.547 191.25l7.773-2.824" stroke-width="1.2" stroke="#000" stroke-miterlimit="10" fill="none"/><path d="M161.32 188.426l7.77-2.824M172.695 189.465l1.8-10.18" stroke-width="1.2" stroke="#00f" stroke-miterlimit="10" fill="none"/><path d="M174.496 179.285l1.797-10.176" stroke-width="1.2" stroke="#000" stroke-miterlimit="10" fill="none"/><path d="M169.695 183.965h7v11h-7zm0 0" fill="#fff"/><use xlink:href="#b" x="169.695" y="192.628" fill="#00f"/><path d="M176.293 169.11l8.77-5.477" stroke-width="1.2" stroke="#000" stroke-miterlimit="10" fill="none"/><path d="M185.063 163.633l8.765-5.473" stroke-width="1.2" stroke="#00f" stroke-miterlimit="10" fill="none"/><path d="M160.46 155.813l15.833 13.296M158.918 160.867l12.664 10.637" stroke-width="1.2" stroke="#000" stroke-miterlimit="10" fill="none"/><path d="M193.828 158.16l-4.992-20.062M193.828 158.16l9.582 3.875" stroke-width="1.2" stroke="#00f" stroke-miterlimit="10" fill="none"/><path d="M203.41 162.035l9.586 3.875" stroke-width="1.2" stroke="#000" stroke-miterlimit="10" fill="none"/><path d="M190.828 152.66h7v11h-7zm0 0" fill="#fff"/><use xlink:href="#b" x="190.828" y="161.323" fill="#00f"/><path d="M188.836 138.098l-10.313-.723" stroke-width="1.2" stroke="#00f" stroke-miterlimit="10" fill="none"/><path d="M178.523 137.375l-10.312-.727" stroke-width="1.2" stroke="#000" stroke-miterlimit="10" fill="none"/><path d="M186.434 142.805l-8.25-.578" stroke-width="1.2" stroke="#00f" stroke-miterlimit="10" fill="none"/><path d="M178.184 142.227l-8.25-.582" stroke-width="1.2" stroke="#000" stroke-miterlimit="10" fill="none"/><path d="M185.836 132.598h7v11h-7zm0 0" fill="#fff"/><use xlink:href="#b" x="185.836" y="141.261" fill="#00f"/><path d="M168.21 136.648l-7.75 19.165M212.996 165.91l16.293-12.722M229.29 153.188l19.163 7.75M233.03 149.453l15.333 6.203M226.418 132.715l2.87 20.472M248.453 160.938l16.297-12.72M264.75 148.22l-2.87-20.478M259.645 146.844l-2.293-16.38M261.88 127.742l-19.165-7.75M242.715 119.992l-16.297 12.723M244.078 125.098l-13.035 10.18M102.176 177.004l-19.43 7.066M102.176 177.004l15.832 13.297M82.746 184.07l-15.832-13.297M84.29 179.016L71.624 168.38" stroke-width="1.2" stroke="#000" stroke-miterlimit="10" fill="none"/></g></svg>
